icons/llamaindex-dark.svg

<svg width="256" height="256" viewBox="0 0 256 256" fill="none" xmlns="http://www.w3.org/2000/svg">
<path d="M196 0H60C26.8629 0 0 26.8629 0 60V196C0 229.137 26.8629 256 60 256H196C229.137 256 256 229.137 256 196V60C256 26.8629 229.137 0 196 0Z" fill="#282828"/>
<path d="M163.873 184.042C163.34 183.448 162.806 182.854 162.273 182.261C158.515 178.154 156.652 173.412 158.132 167.124C143.904 171.738 130.239 172.782 116.129 169.555C115.759 173.776 115.611 177.634 115.039 181.428C114.339 186.071 113.269 190.658 112.392 195.274C112.086 196.882 111.75 198.502 111.65 200.129C111.351 204.974 111.458 209.866 110.805 214.658C110.47 217.122 108.858 219.414 107.91 221.581H97.3463L97.4034 221.449C97.9676 219.914 98.5303 218.38 99.0945 216.845L99.0659 216.882C99.6369 216.309 100.206 215.736 100.777 215.163L100.741 215.2C101.029 214.911 101.317 214.622 101.605 214.333L103.16 214.153C103.311 211.586 103.288 212.529 103.311 211.586C103.424 207.002 103.357 202.406 103.111 197.827C103.02 196.147 102.26 194.502 101.806 192.841C101.491 192.849 101.176 192.857 100.86 192.866C99.176 198.942 97.4918 205.02 95.8075 211.096L95.8823 211.064C94.6765 213.249 92.98 217.489 91.7742 219.675C90.2749 219.811 86.0472 219.55 82.5468 219.57C82.8323 216.683 83.9035 215.17 85.7237 213.536C89.6373 210.024 90.6908 204.87 90.6759 199.936C90.6555 193.044 89.7352 186.156 89.1996 179.265C89.9595 177.88 90.3999 176.113 91.5296 175.172C99.1747 168.803 105.411 161.193 111.234 153.221C116.87 145.502 122.542 137.799 127.853 129.856C133.703 121.107 139.763 112.374 141.105 101.484C151.012 102.528 160.47 104.941 169.35 109.698C172.063 111.151 175.468 111.314 178.555 112.068C179.7 112.952 181.396 113.599 181.895 114.76C184.41 120.609 186.871 126.508 188.859 132.55C191.305 139.982 191.959 147.604 190.695 155.465C189.18 164.877 185.036 172.978 179.697 180.662C178.81 181.942 178.521 183.637 177.956 185.14L177.976 185.116C177.049 185.771 176.069 186.364 175.206 187.092C172.87 189.062 172.306 192.885 168.59 193.42C168.54 193.218 168.515 193.014 168.519 192.804C168.323 192.435 168.129 192.066 167.933 191.697C166.579 189.145 165.224 186.595 163.87 184.043L163.873 184.042ZM67.3177 74.5659C65.8958 74.5061 64.4236 75.6113 62.9745 76.1782C62.9745 76.1782 61.6478 87.1646 61.6478 92.6932C61.6478 98.2218 63.5387 102.909 63.8595 108.11C64.0879 111.814 64.2687 115.774 65.7042 119.084C67.4278 123.055 68.1769 126.892 67.9621 131.115C67.3667 142.846 73.4499 150.783 82.7738 156.829C86.9675 152.272 91.52 147.993 95.2787 143.102C102.801 133.311 109.226 122.822 112.763 110.834C113.5 108.337 113.985 105.768 114.704 102.735C115.096 102.335 115.899 101.513 116.702 100.69L97.4075 100.636C97.1234 100.379 96.9249 100.198 96.6408 99.9414L94.1994 76.1306C85.2397 75.58 76.2828 74.9425 67.315 74.5646L67.3177 74.5659ZM87.5126 46.1863C84.2827 39.6667 79.5399 34.6289 72.3542 31.7579C72.24 33.7249 72.1476 35.3004 72.047 37.0431C69.6463 35.3126 67.523 33.7833 64.7811 31.8068C65.1319 35.3385 65.4717 37.803 65.6022 40.2798C65.8591 45.1763 63.7562 47.6354 58.8244 48.3205C57.8633 48.4537 56.8655 48.3205 55.899 48.4333C53.0062 48.7677 51.4606 50.3949 51.0718 53.2768C50.5634 57.0395 52.4869 59.5041 55.5659 61.0021C58.77 62.5613 62.1861 63.6869 66.0943 65.2338C65.522 67.1628 64.9402 69.07 64.3937 70.9867C63.9016 72.7118 63.4489 74.4477 62.9786 76.1795C64.4277 75.6127 65.8985 74.5075 67.3218 74.5673C76.2896 74.9452 85.2465 75.5814 94.2062 76.1333C93.7005 65.7654 92.1793 55.6027 87.5153 46.189L87.5126 46.1863ZM182.413 190.654C182.68 190.933 182.945 191.21 183.211 191.489C183.49 191.769 183.769 192.049 184.047 192.327C184.325 192.594 184.601 192.86 184.878 193.127C185.897 193.805 186.917 194.485 187.935 195.163C188.43 192.505 191.449 188.683 193.975 186.829C195.017 186.063 195.477 184.53 196.284 183.406C196.736 182.778 197.357 182.272 197.902 181.712C197.682 179.939 197.335 178.173 197.267 176.395C197.073 171.294 197.392 166.259 195.794 161.165C193.873 155.048 194.619 148.588 194.975 142.111C200.837 140.932 203.331 137.109 203.66 131.964C204.057 125.749 202.892 119.754 198.999 114.669C196.208 111.024 192.428 108.979 187.738 109.717C184.632 110.205 181.615 111.262 178.558 112.066C179.703 112.949 181.399 113.596 181.898 114.757C184.413 120.607 186.873 126.505 188.862 132.547C191.308 139.979 191.962 147.601 190.697 155.462C189.183 164.875 185.038 172.975 179.7 180.66C178.812 181.939 178.524 183.634 177.959 185.138C179.444 186.977 180.929 188.815 182.415 190.654H182.413ZM130.999 101.044C130.144 112.075 124.89 121.354 119.058 130.321C113.924 138.215 108.761 146.13 102.997 153.562C98.8579 158.899 93.7086 163.454 89.0093 168.357C89.0732 171.992 89.1371 175.629 89.2009 179.264C89.9608 177.878 90.4013 176.111 91.5309 175.171C99.176 168.802 105.413 161.192 111.235 153.219C116.871 145.501 122.544 137.797 127.855 129.854C133.704 121.106 139.764 112.373 141.106 101.483C137.737 101.336 134.369 101.191 131 101.044H130.999ZM87.3359 159.958C91.6845 155.166 96.5756 150.752 100.257 145.493C105.946 137.368 111.031 128.791 115.934 120.159C118.716 115.264 120.738 109.931 120.999 104.101C121.046 103.052 122.118 102.05 122.716 101.025C122.224 101.038 121.734 101.052 121.241 101.066C120.611 100.936 119.98 100.806 119.351 100.677C118.468 100.682 117.587 100.686 116.705 100.692C115.902 101.514 115.097 102.337 114.707 102.736C113.988 105.768 113.501 108.338 112.766 110.835C109.229 122.824 102.804 133.313 95.2814 143.103C91.5228 147.994 86.9702 152.273 82.7765 156.83C84.2963 157.873 85.8161 158.915 87.3359 159.959V159.958ZM125.151 101.023C125.477 110.188 121.388 117.974 117.007 125.496C112.775 132.759 108.019 139.734 103.192 146.626C100.352 150.681 96.9603 154.353 93.7549 158.146C92.2459 159.931 90.5916 161.593 89.0025 163.31C89.0052 164.993 89.0066 166.674 89.0093 168.357C93.7086 163.454 98.8579 158.899 102.997 153.562C108.761 146.132 113.925 138.216 119.058 130.321C124.89 121.354 130.144 112.075 130.999 101.044C129.05 101.037 127.1 101.03 125.15 101.023H125.151ZM188.091 195.828C188.834 197.349 190.194 198.864 190.204 200.39C190.238 205.8 189.845 211.217 189.501 216.623C189.471 217.102 188.624 217.529 188.157 217.98C187.844 218.214 187.53 218.448 187.217 218.681C186.947 218.97 186.676 219.258 186.406 219.545C186.111 219.804 185.814 220.063 185.519 220.322C185.983 220.844 186.423 221.792 186.913 221.818C189.66 221.964 192.418 221.888 195.296 221.888C197.716 215.979 198.545 210.207 197.651 204.169C197.474 202.973 197.141 201.476 197.657 200.554C201.181 194.268 200.244 188.019 197.902 181.711C197.357 182.271 196.736 182.776 196.284 183.404C195.477 184.529 195.017 186.062 193.975 186.827C191.449 188.681 188.43 192.504 187.935 195.162C187.974 195.386 188.026 195.607 188.091 195.826V195.828ZM122.718 101.023C122.12 102.047 121.047 103.05 121.001 104.1C120.74 109.93 118.717 115.263 115.936 120.158C111.031 128.791 105.947 137.368 100.258 145.491C96.5756 150.751 91.6859 155.163 87.3372 159.956C87.8932 161.074 88.4479 162.191 89.0038 163.309C90.5929 161.59 92.2473 159.929 93.7562 158.144C96.9616 154.353 100.353 150.68 103.193 146.625C108.019 139.733 112.777 132.758 117.008 125.495C121.39 117.972 125.479 110.187 125.152 101.022C124.341 101.022 123.531 101.022 122.719 101.022L122.718 101.023ZM119.351 100.675C119.981 100.805 120.612 100.935 121.241 101.064C120.611 100.935 119.98 100.805 119.351 100.675ZM96.6789 100.289C96.9222 100.405 97.1669 100.52 97.4102 100.636C97.1927 100.466 96.948 100.351 96.6789 100.289ZM162.212 212.958C161.064 213.755 159.917 214.552 158.77 215.348C158.547 216.633 158.324 217.917 158.09 219.263H167.91C167.91 217.28 167.778 215.495 167.956 213.743C168.075 212.579 168.325 211.178 169.055 210.369C175.55 203.167 178.114 194.63 177.979 185.114C177.052 185.77 176.072 186.362 175.209 187.091C172.873 189.061 172.309 192.883 168.593 193.419C168.699 200.662 166.51 207.154 162.213 212.958H162.212Z" fill="url(#paint0_linear_0_1)"/>
<defs>
<linearGradient id="paint0_linear_0_1" x1="27.4065" y1="96.7197" x2="213.75" y2="203.862" gradientUnits="userSpaceOnUse">
<stop stop-color="#F6DDD7"/>
<stop offset="0.25" stop-color="#FCABE6"/>
<stop offset="0.3" stop-color="#F3ADE6"/>
<stop offset="0.38" stop-color="#DDB3E8"/>
<stop offset="0.48" stop-color="#B8BCEC"/>
<stop offset="0.59" stop-color="#85CAF1"/>
<stop offset="0.7" stop-color="#50D8F6"/>
<stop offset="0.76" stop-color="#50D8F6"/>
<stop offset="0.86" stop-color="#B58FE8"/>
</linearGradient>
</defs>
</svg>

<svg xmlns="http://www.w3.org/2000/svg" width="256" height="256" fill="none"><path fill="#282828" d="M196 0H60C26.863 0 0 26.863 0 60v136c0 33.137 26.863 60 60 60h136c33.137 0 60-26.863 60-60V60c0-33.137-26.863-60-60-60"/><path fill="url(#paint0_linear_0_1)" d="m163.873 184.042-1.6-1.781c-3.758-4.107-5.621-8.849-4.141-15.137-14.228 4.614-27.893 5.658-42.003 2.431-.37 4.221-.518 8.079-1.09 11.873-.7 4.643-1.77 9.23-2.647 13.846-.306 1.608-.642 3.228-.742 4.855-.299 4.845-.192 9.737-.845 14.529-.335 2.464-1.947 4.756-2.895 6.923H97.346l.057-.132 1.691-4.604-.028.037 1.711-1.719-.036.037.864-.867 1.555-.18c.151-2.567.128-1.624.151-2.567.113-4.584.046-9.18-.2-13.759-.091-1.68-.851-3.325-1.305-4.986l-.946.025-5.052 18.23.074-.032c-1.206 2.185-2.902 6.425-4.108 8.611-1.5.136-5.727-.125-9.227-.105.285-2.887 1.356-4.4 3.177-6.034 3.913-3.512 4.967-8.666 4.952-13.6-.02-6.892-.94-13.78-1.476-20.671.76-1.385 1.2-3.152 2.33-4.093 7.645-6.369 13.881-13.979 19.704-21.951 5.636-7.719 11.308-15.422 16.619-23.365 5.85-8.749 11.91-17.482 13.252-28.372 9.907 1.044 19.365 3.457 28.245 8.214 2.713 1.453 6.118 1.616 9.205 2.37 1.145.884 2.841 1.531 3.34 2.692 2.515 5.849 4.976 11.748 6.964 17.79 2.446 7.432 3.1 15.054 1.836 22.915-1.515 9.412-5.659 17.513-10.998 25.197-.887 1.28-1.176 2.975-1.741 4.478l.02-.024c-.927.655-1.907 1.248-2.77 1.976-2.336 1.97-2.9 5.793-6.616 6.328a2.4 2.4 0 0 1-.071-.616l-.586-1.107-4.063-7.654zM67.318 74.566c-1.422-.06-2.894 1.045-4.343 1.612 0 0-1.327 10.987-1.327 16.515s1.89 10.216 2.211 15.417c.229 3.704.41 7.664 1.845 10.974 1.724 3.971 2.473 7.808 2.258 12.031-.595 11.731 5.488 19.668 14.812 25.714 4.194-4.557 8.746-8.836 12.505-13.727 7.522-9.791 13.947-20.28 17.484-32.268.737-2.497 1.222-5.066 1.941-8.099l1.998-2.045-19.294-.054-.767-.695-2.442-23.81c-8.96-.551-17.916-1.189-26.884-1.566zm20.195-28.38c-3.23-6.52-7.973-11.557-15.159-14.428l-.307 5.285-7.266-5.236c.35 3.532.69 5.996.821 8.473.257 4.896-1.846 7.355-6.778 8.04-.96.134-1.959 0-2.925.113-2.893.335-4.438 1.962-4.827 4.844-.509 3.762 1.415 6.227 4.494 7.725 3.204 1.56 6.62 2.685 10.528 4.232-.572 1.929-1.154 3.836-1.7 5.753-.492 1.725-.945 3.46-1.415 5.193 1.449-.567 2.92-1.673 4.343-1.613 8.968.378 17.924 1.014 26.884 1.566-.505-10.368-2.027-20.53-6.69-29.944zm94.9 144.468.798.835.836.838.831.8 3.057 2.036c.495-2.658 3.514-6.48 6.04-8.334 1.042-.766 1.502-2.299 2.309-3.423.452-.628 1.073-1.134 1.618-1.694-.22-1.773-.567-3.539-.635-5.317-.194-5.101.125-10.136-1.473-15.23-1.921-6.117-1.175-12.577-.819-19.054 5.862-1.179 8.356-5.002 8.685-10.147.397-6.215-.768-12.21-4.661-17.295-2.791-3.645-6.571-5.69-11.261-4.952-3.106.488-6.123 1.545-9.18 2.349 1.145.883 2.841 1.53 3.34 2.691 2.515 5.85 4.975 11.748 6.964 17.79 2.446 7.432 3.1 15.054 1.835 22.915-1.514 9.413-5.659 17.513-10.997 25.198-.888 1.279-1.176 2.974-1.741 4.478l4.456 5.516zm-51.414-89.61c-.855 11.031-6.109 20.31-11.941 29.277-5.134 7.894-10.297 15.809-16.061 23.241-4.14 5.337-9.288 9.892-13.988 14.795l.192 10.907c.76-1.386 1.2-3.153 2.33-4.093 7.645-6.369 13.882-13.979 19.704-21.952 5.636-7.718 11.309-15.422 16.62-23.365 5.849-8.748 11.909-17.481 13.251-28.371L131 101.044zm-43.663 58.914c4.349-4.792 9.24-9.206 12.921-14.465 5.689-8.125 10.774-16.702 15.677-25.334 2.782-4.895 4.804-10.228 5.065-16.058.047-1.049 1.119-2.051 1.717-3.076l-1.475.041-1.89-.389-2.646.015-1.998 2.044c-.719 3.032-1.206 5.602-1.941 8.099-3.537 11.989-9.962 22.478-17.485 32.268-3.758 4.891-8.31 9.17-12.505 13.727l4.56 3.129zm37.815-58.935c.326 9.165-3.763 16.951-8.144 24.473-4.232 7.263-8.988 14.238-13.815 21.13-2.84 4.055-6.232 7.727-9.437 11.52-1.51 1.785-3.163 3.447-4.752 5.164l.006 5.047c4.7-4.903 9.849-9.458 13.988-14.795 5.764-7.43 10.928-15.346 16.061-23.241 5.832-8.967 11.086-18.246 11.941-29.277zm62.94 94.805c.743 1.521 2.103 3.036 2.113 4.562.034 5.41-.359 10.827-.703 16.233-.03.479-.877.906-1.344 1.357l-.94.701-.811.864-.887.777c.464.522.904 1.47 1.394 1.496 2.747.146 5.505.07 8.383.07 2.42-5.909 3.249-11.681 2.355-17.719-.177-1.196-.51-2.693.006-3.615 3.524-6.286 2.587-12.535.245-18.843-.545.56-1.166 1.065-1.618 1.693-.807 1.125-1.267 2.658-2.309 3.423-2.526 1.854-5.545 5.677-6.04 8.335q.058.336.156.664zm-65.373-94.805c-.598 1.024-1.671 2.027-1.717 3.077-.261 5.83-2.284 11.163-5.065 16.058-4.905 8.633-9.989 17.21-15.678 25.333-3.682 5.26-8.572 9.672-12.92 14.465l1.666 3.353c1.589-1.719 3.243-3.38 4.752-5.165 3.206-3.791 6.597-7.464 9.437-11.519 4.826-6.892 9.584-13.867 13.815-21.13 4.382-7.523 8.471-15.308 8.144-24.473zm-26.039-.734.731.347a1.85 1.85 0 0 0-.731-.347m65.533 112.669-3.442 2.39-.68 3.915h9.82c0-1.983-.132-3.768.046-5.52.119-1.164.369-2.565 1.099-3.374 6.495-7.202 9.059-15.739 8.924-25.255-.927.656-1.907 1.248-2.77 1.977-2.336 1.97-2.9 5.792-6.616 6.328.106 7.243-2.083 13.735-6.38 19.539z"/><defs><linearGradient id="paint0_linear_0_1" x1="27.407" x2="213.75" y1="96.72" y2="203.862" gradientUnits="userSpaceOnUse"><stop stop-color="#F6DDD7"/><stop offset=".25" stop-color="#FCABE6"/><stop offset=".3" stop-color="#F3ADE6"/><stop offset=".38" stop-color="#DDB3E8"/><stop offset=".48" stop-color="#B8BCEC"/><stop offset=".59" stop-color="#85CAF1"/><stop offset=".7" stop-color="#50D8F6"/><stop offset=".76" stop-color="#50D8F6"/><stop offset=".86" stop-color="#B58FE8"/></linearGradient></defs></svg>
